X:49
T: Well der wesse wie mer sein, S. 13
N: L0010
O: Luxemburg
S: Die Luxemburger Volkslieder lterer Zeit, Luxemburg 1904 posth.]
N: 16tel in Takt fnf original als Vorhalte notiert
R: Kinderlied]
M: 2/4
L: 1/16
K: F
 | F2F2c2c2 | A2G2F4 |
G2G2c2c2 | B2A2G2A2 | F2A2AGAG | F4z4 |
F4C4 | F2G2A2B2 | c4z4 |
B2A2G2A2 | G2G2F4 | G4F4

@@@ Tune index: 8103
